package/converter/svg/solid/square-up.svg

<svg xmlns="http://www.w3.org/2000/svg" viewBox="0 0 448 512"><!-- Font Awesome Pro 6.0.0-alpha2 by @fontawesome - https://fontawesome.com License - https://fontawesome.com/license (Commercial License) --><path d="M384 32H64C28.654 32 0 60.654 0 96V416C0 451.346 28.654 480 64 480H384C419.346 480 448 451.346 448 416V96C448 60.654 419.346 32 384 32ZM350.781 246.125C348.312 252.109 342.469 256 336 256H272V352C272 369.673 257.673 384 240 384H208C190.327 384 176 369.673 176 352V256H112C105.531 256 99.688 252.109 97.219 246.125C94.734 240.141 96.109 233.266 100.688 228.688L212.688 116.688C218.935 110.44 229.065 110.44 235.312 116.688L347.312 228.688C351.891 233.266 353.266 240.141 350.781 246.125Z"/></svg>

<svg xmlns="http://www.w3.org/2000/svg" viewBox="0 0 448 512"><!--! Font Awesome Pro 6.6.0 by @fontawesome - https://fontawesome.com License - https://fontawesome.com/license (Commercial License) Copyright 2024 Fonticons, Inc. --><path d="M64 32C28.7 32 0 60.7 0 96L0 416c0 35.3 28.7 64 64 64l320 0c35.3 0 64-28.7 64-64l0-320c0-35.3-28.7-64-64-64L64 32zm171.3 84.7l112 112c4.6 4.6 5.9 11.5 3.5 17.4s-8.3 9.9-14.8 9.9l-64 0 0 96c0 17.7-14.3 32-32 32l-32 0c-17.7 0-32-14.3-32-32l0-96-64 0c-6.5 0-12.3-3.9-14.8-9.9s-1.1-12.9 3.5-17.4l112-112c6.2-6.2 16.4-6.2 22.6 0z"/></svg>
